X: 1
T: la R\'ejouissance
P: piffero secondo a0486
O: Greg Rice
%R: march
F: http://ancients.sudburymuster.org/mus/sng/pdf/happyfrogC0.pdf
Z: 2020 John Chambers <jc:trillian.mit.edu>
M: 4/4
L: 1/16
K: A
E2 |\
A2A2 A2E2 C4 E2E2 | A2A2 A2A2 ABcB A2AB | A2A2 A2c2 c2E2 C2A,2 |\
c2A2 C2A,2 c2A2 C2A,2 | A2A,C E2E2 G6 c2 |
A2dc E2A2 B3A G3A | EAGA EAGA G6 E2 |\
E2AG F2A2 G6 :: G2 | E6 A2 E2EF G2A2 |
E2EF G2A2 E2EF G2E2 | A2A2 F2D2 A,2D2 A,CD2 |\
A2D2 A,CD2 E2CD E2A2 | A2A,2 A2Bc c2A2 E2A,C | B,2CD E2DA E2DA E2EA E2CE |
E2B,2 E2G2 A2C2 C2F2 |\
B,2E2 E2D2 C2E2 A2A2 | A,2A2 A,2E2 A,2D2 B,2G2 | E2F2 GGDD A,6 :|
